X: 46
T:Drummond Castle
M:6/8
L:1/8
F:http://blackrosetheband.googlepages.com/ABCTUNES.ABC May 2009
R:Jig
K:Am
"Am"ABA a3|age "G"g z2|"C"c2c edc|"G"Bdg dBG|
"Am"ABA a3|age "G"g2g|"C"ege "G"deg|"Em"edB "Am"A2B:|
"C"c2c cec|"G"d2d ded|"C"c2c edc|"G"Bdg dBG|1 "C"ccc edc|
"G"deg "Am"a2g|"Em"ege deg|edB "Am"A2B:|2 "Am"ABA a3|
age "G"g2g|"C"ege "G"deg|"Em"edB "Am"A2B||

